X: 74
T:Cwrw Da
T:Good Beer
M:9/8
L:1/8
Q:130
S:Cadw Twmpath Collection
R:Slip Jig
A:Wales
Z:brian_martin12345@yahoo.com
K:D
GAB BGE BGE|GAB BGE AFD|GAB BGE BGE|FGA AFD D3:||
GBd dBG dBG|GBd dBG =cAF|GBd dBG dBG|FGA AFD D3:||
